Newaita-dark/apps/48/openarena.svg

<svg height="48" viewBox="0 0 48 48" width="48" xmlns="http://www.w3.org/2000/svg" xmlns:xlink="http://www.w3.org/1999/xlink"><linearGradient id="a" gradientUnits="userSpaceOnUse" x1="23.81478" x2="23.81478" y1="42.0509045" y2="44.03547050005"><stop offset="0" stop-opacity=".27451"/><stop offset="1" stop-opacity="0"/></linearGradient><linearGradient id="b"><stop offset="0" stop-opacity=".313726"/><stop offset=".222222" stop-opacity=".27451"/><stop offset="1" stop-opacity="0"/></linearGradient><radialGradient id="c" cx="450.908936" cy="189.579361" gradientTransform="matrix(.00000026 -.117199 -.210958 -.00000015 79.684395 95.392999)" gradientUnits="userSpaceOnUse" r="21.166656" xlink:href="#b"/><radialGradient id="d" cx="450.908936" cy="189.579361" gradientTransform="matrix(-.00000026 .117199 .210958 .00000015 -31.80678 -11.291218)" gradientUnits="userSpaceOnUse" r="21.166656" xlink:href="#b"/><radialGradient id="e" cx="450.908936" cy="189.579361" gradientTransform="matrix(-.00000026 -.117199 .210958 -.00000015 -31.80678 95.392999)" gradientUnits="userSpaceOnUse" r="21.166656" xlink:href="#b"/><radialGradient id="f" cx="450.908936" cy="189.579361" gradientTransform="matrix(.00000026 .117199 -.210958 .00000015 79.684393 -11.291219)" gradientUnits="userSpaceOnUse" r="21.166656" xlink:href="#b"/><linearGradient id="g" gradientTransform="matrix(.089071 0 0 .093759 1.190745 20.158174)" gradientUnits="userSpaceOnUse" x1="254" x2="254" y1="233.5" y2="-168.666672"><stop offset="0" stop-color="#5c6bc0"/><stop offset="1" stop-color="#7986cb"/></linearGradient><linearGradient id="h" gradientUnits="userSpaceOnUse" x1="23.814786" x2="23.814786" y1="42.0509015" y2="4.3441580001"><stop offset="0" stop-color="#bdbdbd"/><stop offset="1" stop-color="#e0e0e0"/></linearGradient><path d="m7.691406 42.050781h32.496094v1.984375h-32.496094zm0 0" fill="url(#a)"/><path d="m40.1875 42.050781h3.96875v-1.984375h-3.96875zm0 0" fill="url(#c)"/><path d="m7.691406 42.050781h-3.96875v1.984375h3.96875zm0 0" fill="url(#d)"/><path d="m7.691406 42.050781h-3.96875v-1.984375h3.96875zm0 0" fill="url(#e)"/><path d="m40.1875 42.050781h3.96875v1.984375h-3.96875zm0 0" fill="url(#f)"/><path d="m6.945312 4.34375h33.738282c1.097656 0 1.984375.890625 1.984375 1.984375v33.738281c0 1.097656-.886719 1.984375-1.984375 1.984375h-33.738282c-1.09375 0-1.984374-.886719-1.984374-1.984375v-33.738281c0-1.09375.890624-1.984375 1.984374-1.984375zm0 0" fill="url(#g)"/><path d="m6.945312 4.34375c-1.097656 0-1.984374.886719-1.984374 1.984375v.476563c0-1.097657.886718-1.984376 1.984374-1.984376h33.738282c1.097656 0 1.984375.886719 1.984375 1.984376v-.476563c0-1.097656-.886719-1.984375-1.984375-1.984375zm0 0" fill="#fff" fill-opacity=".392157"/><path d="m6.945312 42.050781c-1.097656 0-1.984374-.886719-1.984374-1.984375v-.746094c0 1.101563.886718 1.988282 1.984374 1.988282h33.738282c1.097656 0 1.984375-.886719 1.984375-1.988282v.746094c0 1.097656-.886719 1.984375-1.984375 1.984375zm0 0" fill-opacity=".235294"/><path d="m74.076259-168.671091h359.840637c11.707216 0 21.164646 9.499093 21.164646 21.164646v359.840637c0 11.707215-9.45743 21.164645-21.164646 21.164645h-359.840637c-11.665552 0-21.164645-9.45743-21.164645-21.164645v-359.840637c0-11.665553 9.499093-21.164646 21.164645-21.164646zm0 0" fill="none" stroke="#212121" stroke-linecap="round" stroke-width="3" transform="matrix(.093759 0 0 .093759 0 20.158175)"/><path d="m23.816406 12.824219c-3.175781 0-6.34375.777343-8.765625 2.316406-5.316406 3.375-5.679687 9.21875-.796875 12.808594.449219.324219.859375.625.910156.667969l-1.351562 2.402343 2.78125 2.023438 7.222656-12.015625 7.21875 12.015625 2.785156-2.023438-1.355468-2.402343c.054687-.042969.460937-.34375.910156-.667969 4.886719-3.589844 4.519531-9.433594-.796875-12.808594-2.417969-1.539063-5.589844-2.316406-8.761719-2.316406zm-.734375 1.441406-6.496093 11.554687c-7.222657-5.777343.71875-11.554687 6.496093-11.554687zm1.453125 0c5.78125 0 13.722656 5.777344 6.5 11.554687zm-.71875 10.113281-2.890625 4.328125 2.890625 4.335938 2.886719-4.335938zm0 0" fill="url(#h)"/><path d="m23.816406 12.824219c-3.175781 0-6.34375.777343-8.765625 2.316406-2.902343 1.84375-4.332031 4.425781-4.230469 6.972656.089844-2.382812 1.515626-4.753906 4.230469-6.476562 2.421875-1.539063 5.589844-2.316407 8.765625-2.316407 3.171875 0 6.34375.777344 8.761719 2.316407 2.714844 1.722656 4.140625 4.09375 4.230469 6.476562.101562-2.546875-1.328125-5.128906-4.230469-6.972656-2.417969-1.539063-5.589844-2.316406-8.761719-2.316406zm-.734375 1.9375c-.089843 0-.183593.003906-.28125.007812l-6.214843 11.050781c-1.941407-1.550781-2.789063-3.105468-2.875-4.542968-.09375 1.574218.707031 3.308594 2.875 5.039062zm1.453125 0 6.5 11.554687c2.167969-1.730468 2.96875-3.464844 2.875-5.039062-.085937 1.4375-.933594 2.992187-2.875 4.542968l-6.214844-11.050781c-.097656-.003906-.191406-.007812-.285156-.007812zm-.71875 9.617187-2.890625 4.328125.164063.25 2.726562-4.082031 2.722656 4.082031.164063-.25zm-8.851562 4.585938-1.152344 2.054687.195312.144531 1.15625-2.050781c-.019531-.015625-.097656-.074219-.199218-.148437zm17.699218 0c-.101562.074218-.179687.132812-.199218.148437l1.15625 2.050781.199218-.144531zm0 0" fill="#fff" fill-opacity=".784314"/><path d="m23.082031 14.214844c-4.339843 0-9.910156 3.265625-9.335937 7.339844.46875-3.320313 4.878906-5.878907 8.671875-6.152344zm1.453125 0 .667969 1.1875c3.792969.273437 8.203125 2.832031 8.671875 6.152344.574219-4.074219-4.996094-7.339844-9.339844-7.339844zm-.71875 6.757812-7.222656 12.019532-2.320312-1.6875-.460938.824218 2.78125 2.023438 7.222656-12.015625 7.21875 12.015625 2.785156-2.023438-.464843-.824218-2.320313 1.6875zm12.972656 1.417969c-.183593 2.003906-1.3125 3.964844-3.414062 5.507813-.449219.320312-.855469.625-.910156.664062l.464844.820312c.136718-.097656.285156-.207031.445312-.324218 2.507812-1.839844 3.628906-4.277344 3.414062-6.667969zm-25.949218.003906c-.214844 2.386719.910156 4.824219 3.414062 6.664063.160156.117187.3125.226562.449219.324218l.460937-.820312c-.050781-.039062-.460937-.34375-.910156-.664062-2.101562-1.542969-3.230468-3.503907-3.414062-5.503907zm10.472656 6.84375-.386719.578125 2.890625 4.335938 2.886719-4.335938-.386719-.578125-2.5 3.753907zm0 0" fill-opacity=".235294"/><path d="m254.017409-78.221395c-33.871765 0-67.660205 8.290875-93.491072 24.705974-56.702918 35.996562-60.577548 98.323944-8.499188 136.611954 4.791209 3.458003 9.165791 6.66603 9.707406 7.12432l-14.41529 25.622553 29.663834 21.581272 77.03431-128.154428 76.992648 128.154428 29.705496-21.581272-14.456952-25.622553c.583277-.45829 4.916197-3.666317 9.707406-7.12432 52.120023-38.28801 48.20373-100.615392-8.499188-136.611954-25.789204-16.415099-59.619307-24.705974-93.44941-24.705974zm-7.832585 15.373532-69.28505 123.238231c-77.034311-61.619115 7.665934-123.238231 69.28505-123.238231zm15.49852 0c61.660778 0 146.361023 61.619116 69.326713 123.238231zm-7.665935 107.864699-30.830389 46.162259 30.830389 46.245583 30.788727-46.245583zm0 0" fill="none" stroke="#212121" stroke-width="3" transform="matrix(.093759 0 0 .093759 0 20.158175)"/></svg>

<?xml version="1.0" encoding="UTF-8"?>
<svg xmlns="http://www.w3.org/2000/svg" xmlns:xlink="http://www.w3.org/1999/xlink" width="48px" height="48px" viewBox="0 0 48 48" version="1.1">
<defs>
<linearGradient id="linear0" gradientUnits="userSpaceOnUse" x1="254" y1="233.5" x2="254" y2="254.666672" gradientTransform="matrix(0.093759,0,0,0.093759,-0.00000572259,20.158178)">
<stop offset="0" style="stop-color:rgb(0%,0%,0%);stop-opacity:0.27451;"/>
<stop offset="1" style="stop-color:rgb(0%,0%,0%);stop-opacity:0;"/>
</linearGradient>
<radialGradient id="radial0" gradientUnits="userSpaceOnUse" cx="450.908936" cy="189.579361" fx="450.908936" fy="189.579361" r="21.166656" gradientTransform="matrix(0.000000261256,-0.117199,-0.210958,-0.000000152308,79.684395,95.392999)">
<stop offset="0" style="stop-color:rgb(0%,0%,0%);stop-opacity:0.313726;"/>
<stop offset="0.222222" style="stop-color:rgb(0%,0%,0%);stop-opacity:0.27451;"/>
<stop offset="1" style="stop-color:rgb(0%,0%,0%);stop-opacity:0;"/>
</radialGradient>
<radialGradient id="radial1" gradientUnits="userSpaceOnUse" cx="450.908936" cy="189.579361" fx="450.908936" fy="189.579361" r="21.166656" gradientTransform="matrix(-0.000000261256,0.117199,0.210958,0.000000152308,-31.80678,-11.291218)">
<stop offset="0" style="stop-color:rgb(0%,0%,0%);stop-opacity:0.313726;"/>
<stop offset="0.222222" style="stop-color:rgb(0%,0%,0%);stop-opacity:0.27451;"/>
<stop offset="1" style="stop-color:rgb(0%,0%,0%);stop-opacity:0;"/>
</radialGradient>
<radialGradient id="radial2" gradientUnits="userSpaceOnUse" cx="450.908936" cy="189.579361" fx="450.908936" fy="189.579361" r="21.166656" gradientTransform="matrix(-0.000000261256,-0.117199,0.210958,-0.000000152308,-31.80678,95.392999)">
<stop offset="0" style="stop-color:rgb(0%,0%,0%);stop-opacity:0.313726;"/>
<stop offset="0.222222" style="stop-color:rgb(0%,0%,0%);stop-opacity:0.27451;"/>
<stop offset="1" style="stop-color:rgb(0%,0%,0%);stop-opacity:0;"/>
</radialGradient>
<radialGradient id="radial3" gradientUnits="userSpaceOnUse" cx="450.908936" cy="189.579361" fx="450.908936" fy="189.579361" r="21.166656" gradientTransform="matrix(0.000000261256,0.117199,-0.210958,0.000000152308,79.684393,-11.291219)">
<stop offset="0" style="stop-color:rgb(0%,0%,0%);stop-opacity:0.313726;"/>
<stop offset="0.222222" style="stop-color:rgb(0%,0%,0%);stop-opacity:0.27451;"/>
<stop offset="1" style="stop-color:rgb(0%,0%,0%);stop-opacity:0;"/>
</radialGradient>
<linearGradient id="linear1" gradientUnits="userSpaceOnUse" x1="254" y1="233.5" x2="254" y2="-168.666672" gradientTransform="matrix(0.089071,0,0,0.093759,1.190745,20.158174)">
<stop offset="0" style="stop-color:rgb(36.078432%,41.960785%,75.294119%);stop-opacity:1;"/>
<stop offset="1" style="stop-color:rgb(47.450981%,52.549022%,79.607844%);stop-opacity:1;"/>
</linearGradient>
<linearGradient id="linear2" gradientUnits="userSpaceOnUse" x1="254" y1="233.5" x2="254" y2="-168.666656" gradientTransform="matrix(0.093759,0,0,0.093759,0,20.158175)">
<stop offset="0" style="stop-color:rgb(74.117649%,74.117649%,74.117649%);stop-opacity:1;"/>
<stop offset="1" style="stop-color:rgb(87.843138%,87.843138%,87.843138%);stop-opacity:1;"/>
</linearGradient>
</defs>
<g id="surface1">
<path style=" stroke:none;fill-rule:nonzero;fill:url(#linear0);" d="M 7.691406 42.050781 L 40.1875 42.050781 L 40.1875 44.035156 L 7.691406 44.035156 Z M 7.691406 42.050781 "/>
<path style=" stroke:none;fill-rule:nonzero;fill:url(#radial0);" d="M 40.1875 42.050781 L 44.15625 42.050781 L 44.15625 40.066406 L 40.1875 40.066406 Z M 40.1875 42.050781 "/>
<path style=" stroke:none;fill-rule:nonzero;fill:url(#radial1);" d="M 7.691406 42.050781 L 3.722656 42.050781 L 3.722656 44.035156 L 7.691406 44.035156 Z M 7.691406 42.050781 "/>
<path style=" stroke:none;fill-rule:nonzero;fill:url(#radial2);" d="M 7.691406 42.050781 L 3.722656 42.050781 L 3.722656 40.066406 L 7.691406 40.066406 Z M 7.691406 42.050781 "/>
<path style=" stroke:none;fill-rule:nonzero;fill:url(#radial3);" d="M 40.1875 42.050781 L 44.15625 42.050781 L 44.15625 44.035156 L 40.1875 44.035156 Z M 40.1875 42.050781 "/>
<path style=" stroke:none;fill-rule:nonzero;fill:url(#linear1);" d="M 6.945312 4.34375 L 40.683594 4.34375 C 41.78125 4.34375 42.667969 5.234375 42.667969 6.328125 L 42.667969 40.066406 C 42.667969 41.164062 41.78125 42.050781 40.683594 42.050781 L 6.945312 42.050781 C 5.851562 42.050781 4.960938 41.164062 4.960938 40.066406 L 4.960938 6.328125 C 4.960938 5.234375 5.851562 4.34375 6.945312 4.34375 Z M 6.945312 4.34375 "/>
<path style=" stroke:none;fill-rule:nonzero;fill:rgb(100%,100%,100%);fill-opacity:0.392157;" d="M 6.945312 4.34375 C 5.847656 4.34375 4.960938 5.230469 4.960938 6.328125 L 4.960938 6.804688 C 4.960938 5.707031 5.847656 4.820312 6.945312 4.820312 L 40.683594 4.820312 C 41.78125 4.820312 42.667969 5.707031 42.667969 6.804688 L 42.667969 6.328125 C 42.667969 5.230469 41.78125 4.34375 40.683594 4.34375 Z M 6.945312 4.34375 "/>
<path style=" stroke:none;fill-rule:nonzero;fill:rgb(0%,0%,0%);fill-opacity:0.235294;" d="M 6.945312 42.050781 C 5.847656 42.050781 4.960938 41.164062 4.960938 40.066406 L 4.960938 39.320312 C 4.960938 40.421875 5.847656 41.308594 6.945312 41.308594 L 40.683594 41.308594 C 41.78125 41.308594 42.667969 40.421875 42.667969 39.320312 L 42.667969 40.066406 C 42.667969 41.164062 41.78125 42.050781 40.683594 42.050781 Z M 6.945312 42.050781 "/>
<path style="fill:none;stroke-width:3;stroke-linecap:round;stroke-linejoin:miter;stroke:rgb(12.941177%,12.941177%,12.941177%);stroke-opacity:1;stroke-miterlimit:4;" d="M 74.076259 -168.671091 L 433.916896 -168.671091 C 445.624112 -168.671091 455.081542 -159.171998 455.081542 -147.506445 L 455.081542 212.334192 C 455.081542 224.041407 445.624112 233.498837 433.916896 233.498837 L 74.076259 233.498837 C 62.410707 233.498837 52.911614 224.041407 52.911614 212.334192 L 52.911614 -147.506445 C 52.911614 -159.171998 62.410707 -168.671091 74.076259 -168.671091 Z M 74.076259 -168.671091 " transform="matrix(0.093759,0,0,0.093759,0,20.158175)"/>
<path style=" stroke:none;fill-rule:nonzero;fill:url(#linear2);" d="M 23.816406 12.824219 C 20.640625 12.824219 17.472656 13.601562 15.050781 15.140625 C 9.734375 18.515625 9.371094 24.359375 14.253906 27.949219 C 14.703125 28.273438 15.113281 28.574219 15.164062 28.617188 L 13.8125 31.019531 L 16.59375 33.042969 L 23.816406 21.027344 L 31.035156 33.042969 L 33.820312 31.019531 L 32.464844 28.617188 C 32.519531 28.574219 32.925781 28.273438 33.375 27.949219 C 38.261719 24.359375 37.894531 18.515625 32.578125 15.140625 C 30.160156 13.601562 26.988281 12.824219 23.816406 12.824219 Z M 23.082031 14.265625 L 16.585938 25.820312 C 9.363281 20.042969 17.304688 14.265625 23.082031 14.265625 Z M 24.535156 14.265625 C 30.316406 14.265625 38.257812 20.042969 31.035156 25.820312 Z M 23.816406 24.378906 L 20.925781 28.707031 L 23.816406 33.042969 L 26.703125 28.707031 Z M 23.816406 24.378906 "/>
<path style=" stroke:none;fill-rule:nonzero;fill:rgb(100%,100%,100%);fill-opacity:0.784314;" d="M 23.816406 12.824219 C 20.640625 12.824219 17.472656 13.601562 15.050781 15.140625 C 12.148438 16.984375 10.71875 19.566406 10.820312 22.113281 C 10.910156 19.730469 12.335938 17.359375 15.050781 15.636719 C 17.472656 14.097656 20.640625 13.320312 23.816406 13.320312 C 26.988281 13.320312 30.160156 14.097656 32.578125 15.636719 C 35.292969 17.359375 36.71875 19.730469 36.808594 22.113281 C 36.910156 19.566406 35.480469 16.984375 32.578125 15.140625 C 30.160156 13.601562 26.988281 12.824219 23.816406 12.824219 Z M 23.082031 14.761719 C 22.992188 14.761719 22.898438 14.765625 22.800781 14.769531 L 16.585938 25.820312 C 14.644531 24.269531 13.796875 22.714844 13.710938 21.277344 C 13.617188 22.851562 14.417969 24.585938 16.585938 26.316406 Z M 24.535156 14.761719 L 31.035156 26.316406 C 33.203125 24.585938 34.003906 22.851562 33.910156 21.277344 C 33.824219 22.714844 32.976562 24.269531 31.035156 25.820312 L 24.820312 14.769531 C 24.722656 14.765625 24.628906 14.761719 24.535156 14.761719 Z M 23.816406 24.378906 L 20.925781 28.707031 L 21.089844 28.957031 L 23.816406 24.875 L 26.539062 28.957031 L 26.703125 28.707031 Z M 14.964844 28.964844 L 13.8125 31.019531 L 14.007812 31.164062 L 15.164062 29.113281 C 15.144531 29.097656 15.066406 29.039062 14.964844 28.964844 Z M 32.664062 28.964844 C 32.5625 29.039062 32.484375 29.097656 32.464844 29.113281 L 33.621094 31.164062 L 33.820312 31.019531 Z M 32.664062 28.964844 "/>
<path style=" stroke:none;fill-rule:nonzero;fill:rgb(0%,0%,0%);fill-opacity:0.235294;" d="M 23.082031 14.214844 C 18.742188 14.214844 13.171875 17.480469 13.746094 21.554688 C 14.214844 18.234375 18.625 15.675781 22.417969 15.402344 Z M 24.535156 14.214844 L 25.203125 15.402344 C 28.996094 15.675781 33.40625 18.234375 33.875 21.554688 C 34.449219 17.480469 28.878906 14.214844 24.535156 14.214844 Z M 23.816406 20.972656 L 16.59375 32.992188 L 14.273438 31.304688 L 13.8125 32.128906 L 16.59375 34.152344 L 23.816406 22.136719 L 31.035156 34.152344 L 33.820312 32.128906 L 33.355469 31.304688 L 31.035156 32.992188 Z M 36.789062 22.390625 C 36.605469 24.394531 35.476562 26.355469 33.375 27.898438 C 32.925781 28.21875 32.519531 28.523438 32.464844 28.5625 L 32.929688 29.382812 C 33.066406 29.285156 33.214844 29.175781 33.375 29.058594 C 35.882812 27.21875 37.003906 24.78125 36.789062 22.390625 Z M 10.839844 22.394531 C 10.625 24.78125 11.75 27.21875 14.253906 29.058594 C 14.414062 29.175781 14.566406 29.285156 14.703125 29.382812 L 15.164062 28.5625 C 15.113281 28.523438 14.703125 28.21875 14.253906 27.898438 C 12.152344 26.355469 11.023438 24.394531 10.839844 22.394531 Z M 21.3125 29.238281 L 20.925781 29.816406 L 23.816406 34.152344 L 26.703125 29.816406 L 26.316406 29.238281 L 23.816406 32.992188 Z M 21.3125 29.238281 "/>
<path style="fill:none;stroke-width:3;stroke-linecap:butt;stroke-linejoin:miter;stroke:rgb(12.941177%,12.941177%,12.941177%);stroke-opacity:1;stroke-miterlimit:4;" d="M 254.017409 -78.221395 C 220.145644 -78.221395 186.357204 -69.93052 160.526337 -53.515421 C 103.823419 -17.518859 99.948789 44.808523 152.027149 83.096533 C 156.818358 86.554536 161.19294 89.762563 161.734555 90.220853 L 147.319265 115.843406 L 176.983099 137.424678 L 254.017409 9.27025 L 331.010057 137.424678 L 360.715553 115.843406 L 346.258601 90.220853 C 346.841878 89.762563 351.174798 86.554536 355.966007 83.096533 C 408.08603 44.808523 404.169737 -17.518859 347.466819 -53.515421 C 321.677615 -69.93052 287.847512 -78.221395 254.017409 -78.221395 Z M 246.184824 -62.847863 L 176.899774 60.390368 C 99.865463 -1.228747 184.565708 -62.847863 246.184824 -62.847863 Z M 261.683344 -62.847863 C 323.344122 -62.847863 408.044367 -1.228747 331.010057 60.390368 Z M 254.017409 45.016836 L 223.18702 91.179095 L 254.017409 137.424678 L 284.806136 91.179095 Z M 254.017409 45.016836 " transform="matrix(0.093759,0,0,0.093759,0,20.158175)"/>
</g>
</svg>
